svgs/sharp-regular/square-2.svg

<svg xmlns="http://www.w3.org/2000/svg" viewBox="0 0 448 512"><!--! Font Awesome Pro 6.6.0 by @fontawesome - https://fontawesome.com License - https://fontawesome.com/license (Commercial License) Copyright 2024 Fonticons, Inc. --><path d="M48 80l0 352 352 0 0-352L48 80zM0 32l48 0 352 0 48 0 0 48 0 352 0 48-48 0L48 480 0 480l0-48L0 80 0 32zM161.7 146.5c15.8-12 35.2-18.4 55.1-18.1l3.4 .1c46.5 .7 83.8 38.6 83.8 85.1c0 23.5-9.7 46-26.9 62.1L212.7 336l83.3 0 24 0 0 48-24 0-144 0-24 0 0-34.4 7.6-7.1L244.3 240.6c7.5-7 11.7-16.8 11.7-27.1c0-20.3-16.3-36.8-36.6-37.1l-3.4-.1c-9.1-.1-18 2.8-25.3 8.3L174.5 197l-19.1 14.5-29.1-38.2 19.1-14.5 16.2-12.3z"/></svg>

<svg xmlns="http://www.w3.org/2000/svg" viewBox="0 0 448 512"><!--! Font Awesome Pro 6.4.2 by @fontawesome - https://fontawesome.com License - https://fontawesome.com/license (Commercial License) Copyright 2023 Fonticons, Inc. --><path d="M48 80V432H400V80H48zM0 32H48 400h48V80 432v48H400 48 0V432 80 32zM161.7 146.5c15.8-12 35.2-18.4 55.1-18.1l3.4 .1c46.5 .7 83.8 38.6 83.8 85.1c0 23.5-9.7 46-26.9 62.1L212.7 336H296h24v48H296 152 128V349.6l7.6-7.1L244.3 240.6c7.5-7 11.7-16.8 11.7-27.1c0-20.3-16.3-36.8-36.6-37.1l-3.4-.1c-9.1-.1-18 2.8-25.3 8.3L174.5 197l-19.1 14.5-29.1-38.2 19.1-14.5 16.2-12.3z"/></svg>
